X:1
T:Title
%%score { ( 1 3 ) | ( 2 4 ) }
L:1/8
M:12/8
K:C
V:1 treble nm="Grand Piano"
V:3 treble 
V:2 bass 
V:4 bass 
V:1
 z6 z3[Q:1/4=117] [EG]2 [DF] | E2 E E2 E E2 E D2 E | F2 [DF] [DF]2 [DF] [DF]3 [FA]2 [EG] | %3
 [DF]2 [DF] [DF]2 [DF] [DF]2 D E2 F | [EG]2 [EG] [EG]2 [EG] [EG]3 [CE]2 [DF] | %5
 [EG]2 [EG] [EG]2 [EG] [EG]2 E F2 G | A2 A A2 [GB] [Ac]3 [Ac]2 [Ad] | %7
 [Ge]2 [Ec] [FB]2 [Fd] [Gc]2 G F2 A |[M:21/16] G->GE[DF]->[DF][B,D]C3/2- C3 |[M:3/8] z AB | %10
[M:6/4] c2- [Ec-] [Ec-]2 [Ec-] [Ec]2 [Ec]ed[Ec] | c6 z6 | .F12 | z2 C C2 C C3 GAB | %14
 c2- [Ec] c2- [Ec-] [Ec-]2 [Ec][Ec][Fd][Ge] | f2- [Af] f2- [Af-] [Af]3 [Af]ed | c6 B6 | %17
[M:9/8] c8- c |] %18
V:2
 z6 z3 [C,G,]2 [C,G,] | [C,G,C]2 [C,G,C] [C,G,C]2 [C,G,C] [C,G,C]2 [C,G,C] [F,G,B,]2 [E,G,C] | %2
 [D,G,D]2 [C,G,] [B,,G,]2 [A,,G,] [G,,G,]3 [G,,G,]2 [G,,G,] | %3
 [G,,G,]2 [G,,G,] [G,,G,]2 [G,,G,] [G,,G,]2 [F,G,B,] [E,G,C]2 [E,G,D] | %4
 [C,G,]2 [C,G,] [C,A,]2 [C,B,] [C,C]3 [C,G,]2 [C,G,] | %5
 [C,C]2 [C,C] [C,C]2 [C,C] [C,C]2 [C,G,C] [D,G,B,]2 [E,G,C] | %6
 [F,CF]2 [F,CF] [F,CF]2 [F,C] [F,C]3 [F,C]2 [F,C] | %7
 [C,C]2 [C,G,] [D,G,]2 [D,G,] [E,G,]2 [E,G,C] [F,A,C]2 [F,CF] | %8
[M:21/16] [G,CE]->[G,CE][G,C][G,,G,]->[G,,G,][G,,F,][C,E,]3/2- [C,E,]3 |[M:3/8] G,2 [G,F] | %10
[M:6/4] [C,G,]2 [C,G,] [C,G,]2 [C,G,] [C,G,]2 [C,G,] [C,G,]2 [C,G,] | %11
 [G,E]2 G, G,2 G, [G,D]3 [G,B,]2 [G,C] | z6 z2 z .G,3 | %13
 [C,G,C]2 [C,G,] [C,G,]2 [C,G,] [C,G,]3[K:treble] [G,F]2 [G,F] | %14
 [C,C]2 [C,G,] [C,G,]2 [C,G,] [C,G,]2 [C,G,] [C,G,]2 [C,C] | %15
 [F,C]2 [F,C] [F,C]2 [F,C] [F,C]4[K:treble] G[F,A,F] | %16
 [G,E]2 G, G,2[K:bass] [G,E] [G,D]2 G, G,2 [G,D] |[M:9/8] [C,G,]2 [C,G,] [C,A,]2 [C,A,] [C,G,]3 |] %18
V:3
 x12 | x12 | x12 | x12 | x12 | x12 | x12 | x12 |[M:21/16] x21/2 |[M:3/8] G2 z | %10
[M:6/4] .E6 z2 z .E3 | z2 E E2 E B3 D2 E | D2 D D2 D D2 [B,D][FA][EG][G,DF] | E12 | .E3 .E3 z6 | %15
 .A3 .A3 z6 | z2 E E2 c z2 D D2 B |[M:9/8] E2 E F2 F E3 |] %18
V:4
 x12 | x12 | x12 | x12 | x12 | x12 | x12 | x12 |[M:21/16] x21/2 |[M:3/8] x3 |[M:6/4] x12 | x12 | %12
 [G,,G,]2 [G,,G,] [G,,G,]2 [G,,G,] [G,,G,]2 [G,,G,]G,,A,,B,, | x9[K:treble] x3 | x12 | %15
 z6 z2 z .[F,A,]3[K:treble] | x5[K:bass] x7 |[M:9/8] x9 |] %18

